images/svg/phone.svg

<?xml version="1.0" encoding="iso-8859-1"?>
<!-- Generator: Adobe Illustrator 19.0.0, SVG Export Plug-In . SVG Version: 6.00 Build 0)  -->
<svg version="1.1" id="Capa_1" xmlns="http://www.w3.org/2000/svg" xmlns:xlink="http://www.w3.org/1999/xlink" x="0px" y="0px"
	 viewBox="0 0 513.64 513.64" style="enable-background:new 0 0 513.64 513.64;" xml:space="preserve">
<g>
	<g>
		<path d="M499.66,376.96l-71.68-71.68c-25.6-25.6-69.12-15.359-79.36,17.92c-7.68,23.041-33.28,35.841-56.32,30.72
			c-51.2-12.8-120.32-79.36-133.12-133.12c-7.68-23.041,7.68-48.641,30.72-56.32c33.28-10.24,43.52-53.76,17.92-79.36l-71.68-71.68
			c-20.48-17.92-51.2-17.92-69.12,0l-48.64,48.64c-48.64,51.2,5.12,186.88,125.44,307.2c120.32,120.32,256,176.641,307.2,125.44
			l48.64-48.64C517.581,425.6,517.581,394.88,499.66,376.96z"/>
	</g>
</g>
<g>
</g>
<g>
</g>
<g>
</g>
<g>
</g>
<g>
</g>
<g>
</g>
<g>
</g>
<g>
</g>
<g>
</g>
<g>
</g>
<g>
</g>
<g>
</g>
<g>
</g>
<g>
</g>
<g>
</g>
</svg>

<svg width="514" height="514" viewBox="0 0 514 514" fill="none" xmlns="http://www.w3.org/2000/svg">
<g clip-path="url(#clip0)">
<path d="M499.66 376.96L427.98 305.28C402.38 279.68 358.86 289.921 348.62 323.2C340.94 346.241 315.34 359.041 292.3 353.92C241.1 341.12 171.98 274.56 159.18 220.8C151.5 197.759 166.86 172.159 189.9 164.48C223.18 154.24 233.42 110.72 207.82 85.12L136.14 13.44C115.66 -4.48 84.9399 -4.48 67.0199 13.44L18.3799 62.08C-30.2601 113.28 23.4999 248.96 143.82 369.28C264.14 489.6 399.82 545.921 451.02 494.72L499.66 446.08C517.581 425.6 517.581 394.88 499.66 376.96Z" fill="white"/>
</g>
<defs>
<clipPath id="clip0">
<rect width="513.64" height="513.64" fill="white"/>
</clipPath>
</defs>
</svg>
